X: 2463
T:I Wish I Never Saw You
R:reel
D:Mary Bergin: Feadoga Stain
Z:id:hn-reel-184
M:C|
K:G
edBA ~G3A|B2Ad BE~E2|1 ~G3E DEGA|AGdB A2Bd:|2 ~G3E DEGB|dBAd BG~G2||
|:dedc BG (3Bcd|e2af gfef|1 dedc BG (3Bcd|egfa ~g3e:|2 d2df ~e3g|fgaf ~g3e||
